**kern	**silbe	**kern	**silbe	**harmony	**chordsym	**phrase	**timestamp	**leadinstrument
*ICvox	*	*ICvox	*	*M4/4	*M4/4	*	*	*
*E:	*	*E:	*	*E:	*E:	*	*	*
*M4/4	*	*M4/4	*	*	*	*	*	*
*clefF4	*	*clefC3	*	*	*	*	*	*
r;	.	r;	.	1r;	r	.	0	r
=1	=1	=1	=1	=1	=1	=1	=1	=1
*	*	*	*	*>A_intro	*>A_intro	*>A_intro	*>A_intro	*>A_intro
1r	.	2r	.	4EM	E:maj (E G# B)	newline	0.372	r
.	.	.	.	4F#mm	F#:min7 (F# A C# E)	.	.	r
.	.	8G# 8B	Ooh	2EM	E:maj (G# E B)	.	.	r
.	.	8A 8c	_	.	.	.	.	.
.	.	8B 8d	_	.	.	.	.	.
.	.	8[c 8[e	_	.	.	.	.	.
=2	=2	=2	=2	=2	=2	=2	=2	=2
1r	.	4.c] 4.e]	_	1CM	C:maj (C E G)	newline	2.693	r
.	.	8[B 8[d	_	.	.	.	.	.
.	.	4.B] 4.d]	_	.	.	.	.	.
.	.	8[A 8[c	_	.	.	.	.	.
=3	=3	=3	=3	=3	=3	=3	=3	=3
1r	.	2A] 2c]	_	1DM	D:maj (D F# A)	.	.	r
.	.	4.F# 4.A	_	.	.	.	.	.
.	.	8[G# 8[B	_	.	.	.	.	.
=4	=4	=4	=4	=4	=4	=4	=4	=4
1r	.	1G#] 1B]	_	1EM	E:maj (E G# B)	.	.	r
=5	=5	=5	=5	=5	=5	=5	=5	=5
1r	.	4r	.	4EM	E:maj (E G# B)	.	.	r
.	.	8r	.	4F#mm	F#:min7 (F# A C# E)	.	.	r
.	.	8r	.	.	.	.	.	.
.	.	8G# 8B	Ooh	2EM	E:maj (G# E B)	.	.	r
.	.	8A 8c	_	.	.	.	.	.
.	.	8B 8d	_	.	.	.	.	.
.	.	8[c 8[e	_	.	.	.	.	.
=6	=6	=6	=6	=6	=6	=6	=6	=6
1r	.	4.c] 4.e]	_	1CM	C:maj (C E G)	newline	11.867	r
.	.	8[B 8[d	_	.	.	.	.	.
.	.	4.B] 4.d]	_	.	.	.	.	.
.	.	8[A 8[c	_	.	.	.	.	.
=7	=7	=7	=7	=7	=7	=7	=7	=7
1r	.	2A] 2c]	_	1DM	D:maj (D F# A)	.	.	r
.	.	4.F# 4.A	_	.	.	.	.	.
.	.	8[G# 8[B	_	.	.	.	.	.
=8	=8	=8	=8	=8	=8	=8	=8	=8
*	*	*	*	*>B_verse	*>B_verse	*>B_verse	*>B_verse	*>B_verse
8Aq	_	.	.	.	.	.	.	.
2[B	How	1G#] 1B]	_	1EM	E:maj (E G# B)	newline	16.453	voice
8B]	_	.	.	.	.	.	.	.
8r	.	.	.	.	.	.	.	.
4r	.	.	.	.	.	.	.	.
=9	=9	=9	=9	=9	=9	=9	=9	=9
2r	.	1r	.	1C#mm	C#:min7 (C# E G# B)	.	.	voice
8.B	How	.	.	.	.	.	.	.
16[A	can	.	.	.	.	.	.	.
8A]	_	.	.	.	.	.	.	.
8G#	it	.	.	.	.	.	.	.
=10	=10	=10	=10	=10	=10	=10	=10	=10
8F#	_	1r	.	1DM	D:maj (D F# A)	.	.	voice
4F#	be	.	.	.	.	.	.	.
8r	.	.	.	.	.	.	.	.
4.r	.	.	.	.	.	.	.	.
16F#	That	.	.	.	.	.	.	.
16G#	a	.	.	.	.	.	.	.
=11	=11	=11	=11	=11	=11	=11	=11	=11
4A	love	1r	.	1Bm	B:min (B D F#)	.	.	voice
4r	.	.	.	.	.	.	.	.
8G#q	_	.	.	.	.	.	.	.
8.A	carved	.	.	.	.	.	.	.
16[G#	out	.	.	.	.	.	.	.
8G#]	_	.	.	.	.	.	.	.
8F#	of	.	.	.	.	.	.	.
=12	=12	=12	=12	=12	=12	=12	=12	=12
8.G#	ca-	1r	.	1EM	E:maj (E G# B)	newline	25.529	voice
16[E	-ring	.	.	.	.	.	.	.
8E]	_	.	.	.	.	.	.	.
8r	.	.	.	.	.	.	.	.
8E	fa-	.	.	.	.	.	.	.
8F#	-shioned	.	.	.	.	.	.	.
8G#	by	.	.	.	.	.	.	.
8Aq	_	.	.	.	.	.	.	.
8[B	fate	.	.	.	.	.	.	.
=13	=13	=13	=13	=13	=13	=13	=13	=13
8B]	_	1r	.	1C#mm	C#:min7 (C# E G# B)	.	.	voice
4r	.	.	.	.	.	.	.	.
8BB~	could	.	.	.	.	.	.	.
8.B	suf-	.	.	.	.	.	.	.
16[A	-fer	.	.	.	.	.	.	.
8A]	_	.	.	.	.	.	.	.
8G#	so	.	.	.	.	.	.	.
=14	=14	=14	=14	=14	=14	=14	=14	=14
8F#	_	1r	.	1DM	D:maj (D F# A)	.	.	voice
4F#	hard	.	.	.	.	.	.	.
8r	.	.	.	.	.	.	.	.
4r	.	.	.	.	.	.	.	.
8r	.	.	.	.	.	.	.	.
16F#	From	.	.	.	.	.	.	.
16G#	the	.	.	.	.	.	.	.
=15	=15	=15	=15	=15	=15	=15	=15	=15
4A	games	1r	.	1Bm	B:min (B D F#)	.	.	voice
4r	.	.	.	.	.	.	.	.
8G#q	_	.	.	.	.	.	.	.
8.A	we	.	.	.	.	.	.	.
16[G#	play	.	.	.	.	.	.	.
8G#]	_	.	.	.	.	.	.	.
8F#	too	.	.	.	.	.	.	.
=16	=16	=16	=16	=16	=16	=16	=16	=16
8.G#	of-	1r	.	1EM	E:maj (E G# B)	newline	34.723	voice
16[E	-ten	.	.	.	.	.	.	.
8E]	_	.	.	.	.	.	.	.
8r	.	.	.	.	.	.	.	.
2r	.	.	.	.	.	.	.	.
=17	=17	=17	=17	=17	=17	=17	=17	=17
4r	.	1r	.	1C#mm	C#:min7 (C# E G# B)	.	.	voice
8r	.	.	.	.	.	.	.	.
8BB	But	.	.	.	.	.	.	.
8Aq	_	.	.	.	.	.	.	.
8.B	ma-	.	.	.	.	.	.	.
16[A	-king	.	.	.	.	.	.	.
8A]	_	.	.	.	.	.	.	.
8G#	mis	.	.	.	.	.	.	.
=18	=18	=18	=18	=18	=18	=18	=18	=18
8F#	_	1r	.	1DM	D:maj (D F# A)	.	.	voice
4F#	takes	.	.	.	.	.	.	.
8r	.	.	.	.	.	.	.	.
4r	.	.	.	.	.	.	.	.
8r	.	.	.	.	.	.	.	.
16F#	is	.	.	.	.	.	.	.
16G#	a	.	.	.	.	.	.	.
=19	=19	=19	=19	=19	=19	=19	=19	=19
4A	part	1r	.	1Bm	B:min (B D F#)	.	.	voice
8r	.	.	.	.	.	.	.	.
8BB	of	.	.	.	.	.	.	.
8G#q	_	.	.	.	.	.	.	.
8.A	life's	.	.	.	.	.	.	.
16[G#	im	.	.	.	.	.	.	.
8G#]	_	.	.	.	.	.	.	.
8F#	per-	.	.	.	.	.	.	.
=20	=20	=20	=20	=20	=20	=20	=20	=20
8.G#	-fec-	1r	.	1EM	E:maj (E G# B)	newline	43.848	voice
16[B	-tions	.	.	.	.	.	.	.
8B]	_	.	.	.	.	.	.	.
8r	.	.	.	.	.	.	.	.
8E	born	.	.	.	.	.	.	.
8F#	of	.	.	.	.	.	.	.
8G#	the	.	.	.	.	.	.	.
16B	years	.	.	.	.	.	.	.
16c#	_	.	.	.	.	.	.	.
=21	=21	=21	=21	=21	=21	=21	=21	=21
4B	_	1r	.	1C#mm	C#:min7 (C# E G# B)	.	.	voice
4r	.	.	.	.	.	.	.	.
8Aq	_	.	.	.	.	.	.	.
8.B	is	.	.	.	.	.	.	.
16[A	it	.	.	.	.	.	.	.
8A]	_	.	.	.	.	.	.	.
8G#	so	.	.	.	.	.	.	.
=22	=22	=22	=22	=22	=22	=22	=22	=22
8F#	_	1r	.	1DM	D:maj (D F# A)	.	.	voice
4F#	wrong	.	.	.	.	.	.	.
8r	.	.	.	.	.	.	.	.
4r	.	.	.	.	.	.	.	.
8r	.	.	.	.	.	.	.	.
16F#	To	.	.	.	.	.	.	.
16G#	be	.	.	.	.	.	.	.
=23	=23	=23	=23	=23	=23	=23	=23	=23
4A	hu-	1r	.	1Bm	B:min (B D F#)	.	.	voice
8G#	-man	.	.	.	.	.	.	.
8F#	_	.	.	.	.	.	.	.
4F#	af-	.	.	.	.	.	.	.
8G#	-ter	.	.	.	.	.	.	.
8E	_	.	.	.	.	.	.	.
=24	=24	=24	=24	=24	=24	=24	=24	=24
1E	all?	1[g#	Ha,	1EM	E:maj (E G# B)	newline	53.01	voice
=25	=25	=25	=25	=25	=25	=25	=25	=25
1r	.	4g#]	_	4EM	E:maj (E G# B)	.	.	voice
.	.	4g#	drawn	4F#mm	F#:min7 (F# A C# E)	.	.	voice
.	.	8g#	in-	2EM	E:maj (G# E B)	.	.	voice
.	.	8f#	-to	.	.	.	.	.
.	.	8e	the	.	.	.	.	.
.	.	8[g	stream	.	.	.	.	.
=26	=26	=26	=26	=26	=26	=26	=26	=26
*	*	*	*	*>A_chorus	*>A_chorus	*>A_chorus	*>A_chorus	*>A_chorus
1r	.	2g]	_	1CM	C:maj (C E G)	newline	57.616	voice
.	.	4r	.	.	.	.	.	.
.	.	8aq	_	.	.	.	.	.
.	.	8b	of	.	.	.	.	.
.	.	8[a	un	.	.	.	.	.
=27	=27	=27	=27	=27	=27	=27	=27	=27
1r	.	4a]	_	1DM	D:maj (D F# A)	.	.	voice
.	.	8eq	_	.	.	.	.	.
.	.	8f#	de-	.	.	.	.	.
.	.	8[e	-fined	.	.	.	.	.
.	.	4e]	_	.	.	.	.	.
.	.	8Bq	_	.	.	.	.	.
.	.	8c#	il-	.	.	.	.	.
.	.	8[B	-lu	.	.	.	.	.
=28	=28	=28	=28	=28	=28	=28	=28	=28
1r	.	4.B]	_	1EM	E:maj (E G# B)	.	.	voice
.	.	8f#q	_	.	.	.	.	.
.	.	8[g#	sion	.	.	.	.	.
.	.	2g#]	_	.	.	.	.	.
=29	=29	=29	=29	=29	=29	=29	=29	=29
1r	.	4r	.	4EM	E:maj (E G# B)	.	.	voice
.	.	4g#	those	4F#mm	F#:min7 (F# A C# E)	.	.	voice
.	.	8g#	di-	2EM	E:maj (G# E B)	.	.	voice
.	.	8f#	-a-	.	.	.	.	.
.	.	8e	-mond	.	.	.	.	.
.	.	8[g	dreams	.	.	.	.	.
=30	=30	=30	=30	=30	=30	=30	=30	=30
1r	.	2g]	_	1CM	C:maj (C E G)	newline	66.773	voice
.	.	4r	.	.	.	.	.	.
.	.	8aq	_	.	.	.	.	.
.	.	8b	they	.	.	.	.	.
.	.	8[a	can't	.	.	.	.	.
=31	=31	=31	=31	=31	=31	=31	=31	=31
1r	.	4a]	_	1DM	D:maj (D F# A)	.	.	voice
.	.	8eq	_	.	.	.	.	.
.	.	8f#	dis-	.	.	.	.	.
.	.	8[e	-guise	.	.	.	.	.
.	.	4e]	_	.	.	.	.	.
.	.	8Bq	_	.	.	.	.	.
.	.	8c#	the	.	.	.	.	.
.	.	8[B	truth!	.	.	.	.	.
=32	=32	=32	=32	=32	=32	=32	=32	=32
1r	.	1B]	_	1EM	E:maj (E G# B)	.	.	voice
=33	=33	=33	=33	=33	=33	=33	=33	=33
8r	.	1r	.	4EM	E:maj (E G# B)	.	.	voice
8B	That	.	.	.	.	.	.	.
8B	there	.	.	4F#mm	F#:min7 (F# A C# E)	.	.	voice
8e	is	.	.	.	.	.	.	.
8B	some-	.	.	2EM	E:maj (G# E B)	.	.	voice
8A	-thing	.	.	.	.	.	.	.
8G	a-	.	.	.	.	.	.	.
8A	-bout	.	.	.	.	.	.	.
=34	=34	=34	=34	=34	=34	=34	=34	=34
8G	_	1r	.	1CM	C:maj (C E G)	newline	75.866	voice
4G	you	.	.	.	.	.	.	.
8r	.	.	.	.	.	.	.	.
4r	.	.	.	.	.	.	.	.
8r	.	.	.	.	.	.	.	.
8Aq	_	.	.	.	.	.	.	.
8B	ba	.	.	.	.	.	.	.
=35	=35	=35	=35	=35	=35	=35	=35	=35
8A	_	1r	.	1DM	D:maj (D F# A)	.	.	voice
4A	by	.	.	.	.	.	.	.
8r	.	.	.	.	.	.	.	.
4r	.	.	.	.	.	.	.	.
8Gq	_	.	.	.	.	.	.	.
8A	so	.	.	.	.	.	.	.
8[B	right	.	.	.	.	.	.	.
=36	=36	=36	=36	=36	=36	=36	=36	=36
2.B_	_	1r	.	1EM	E:maj (E G# B)	.	.	voice
8B]	_	.	.	.	.	.	.	.
8r	.	.	.	.	.	.	.	.
=37	=37	=37	=37	=37	=37	=37	=37	=37
8r	.	1r	.	4EM	E:maj (E G# B)	.	.	voice
8B	I	.	.	.	.	.	.	.
8B	would-	.	.	4F#mm	F#:min7 (F# A C# E)	.	.	voice
8B	-n't	.	.	.	.	.	.	.
8B	be	.	.	2EM	E:maj (G# E B)	.	.	voice
8A	_	.	.	.	.	.	.	.
8G	with-	.	.	.	.	.	.	.
8A	-out	.	.	.	.	.	.	.
=38	=38	=38	=38	=38	=38	=38	=38	=38
8G	_	1r	.	1CM	C:maj (C E G)	newline	85.025	->
4G	you	.	.	.	.	.	.	.
8r	.	.	.	.	.	.	.	.
8B	ba	.	.	.	.	.	.	.
8c	_	.	.	.	.	.	.	.
8B	_	.	.	.	.	.	.	.
8A	by	.	.	.	.	.	.	.
=39	=39	=39	=39	=39	=39	=39	=39	=39
2r	.	1r	.	1DM	D:maj (D F# A)	.	.	->
4r	.	.	.	.	.	.	.	.
8c#	to-	.	.	.	.	.	.	.
8[B	-night	.	.	.	.	.	.	.
=40	=40	=40	=40	=40	=40	=40	=40	=40
*	*	*	*	*>B_verse	*>B_verse	*>B_verse	*>B_verse	*>B_verse
2.B]	_	1r	.	1EM	E:maj (E G# B)	newline	89.635	->
4r	.	.	.	.	.	.	.	.
=41	=41	=41	=41	=41	=41	=41	=41	=41
4r	.	1r	.	1C#mm	C#:min7 (C# E G# B)	.	.	->
8r	.	.	.	.	.	.	.	.
8BB~	If	.	.	.	.	.	.	.
8.B	e-	.	.	.	.	.	.	.
16[A	-ver	.	.	.	.	.	.	.
8A]	_	.	.	.	.	.	.	.
8G#	our	.	.	.	.	.	.	.
=42	=42	=42	=42	=42	=42	=42	=42	=42
8F#	_	1r	.	1DM	D:maj (D F# A)	.	.	->
4F#	love	.	.	.	.	.	.	.
8r	.	.	.	.	.	.	.	.
8.r	.	.	.	.	.	.	.	.
16[F#	was	.	.	.	.	.	.	.
16F#]	_	.	.	.	.	.	.	.
8G#	con	.	.	.	.	.	.	.
16G#Q	_	.	.	.	.	.	.	.
16[A	cealed	.	.	.	.	.	.	.
=43	=43	=43	=43	=43	=43	=43	=43	=43
4A]	_	1r	.	1Bm	B:min (B D F#)	.	.	->
4r	.	.	.	.	.	.	.	.
8G#q	_	.	.	.	.	.	.	.
8.A	no	.	.	.	.	.	.	.
16[G#	one	.	.	.	.	.	.	.
8G#]	_	.	.	.	.	.	.	.
8F#	can	.	.	.	.	.	.	.
=44	=44	=44	=44	=44	=44	=44	=44	=44
8.G#	say	1r	.	1EM	E:maj (E G# B)	newline	98.74	->
16[B	that	.	.	.	.	.	.	.
8B]	_	.	.	.	.	.	.	.
8r	.	.	.	.	.	.	.	.
8E	we	.	.	.	.	.	.	.
8F#	did-	.	.	.	.	.	.	.
8G#	-n't	.	.	.	.	.	.	.
16B	feel	.	.	.	.	.	.	.
16c#	_	.	.	.	.	.	.	.
=45	=45	=45	=45	=45	=45	=45	=45	=45
4B	_	1r	.	1C#mm	C#:min7 (C# E G# B)	.	.	->
4r	.	.	.	.	.	.	.	.
8Aq	_	.	.	.	.	.	.	.
8.B	a	.	.	.	.	.	.	.
16[A	mil	.	.	.	.	.	.	.
8A]	_	.	.	.	.	.	.	.
8G#	lion	.	.	.	.	.	.	.
=46	=46	=46	=46	=46	=46	=46	=46	=46
8F#	_	1r	.	1DM	D:maj (D F# A)	.	.	->
4F#	things	.	.	.	.	.	.	.
8r	.	.	.	.	.	.	.	.
4r	.	.	.	.	.	.	.	.
8r	.	.	.	.	.	.	.	.
16F#	and	.	.	.	.	.	.	.
16G#	a	.	.	.	.	.	.	.
=47	=47	=47	=47	=47	=47	=47	=47	=47
4A	per-	1r	.	1Bm	B:min (B D F#)	.	.	->
8G#	-fect	.	.	.	.	.	.	.
8F#	_	.	.	.	.	.	.	.
4F#	dream	.	.	.	.	.	.	.
8G#	of	.	.	.	.	.	.	.
8E	_	.	.	.	.	.	.	.
=48	=48	=48	=48	=48	=48	=48	=48	=48
2E	life	1r	.	1EM	E:maj (E G# B)	newline	107.875	->
4r	.	.	.	.	.	.	.	.
8r	.	.	.	.	.	.	.	.
8[B	Gone	.	.	.	.	.	.	.
=49	=49	=49	=49	=49	=49	=49	=49	=49
4B]	_	4r	.	1C#mm	C#:min7 (C# E G# B)	.	.	->
4r	.	8r	.	.	.	.	.	.
.	.	8r	.	.	.	.	.	.
8.B	Fra-	8.e	Fra-	.	.	.	.	.
16[A	-gile,	16[c#	-gile,	.	.	.	.	.
8A]	_	8c#]	_	.	.	.	.	.
8G#	but	8B	but	.	.	.	.	.
=50	=50	=50	=50	=50	=50	=50	=50	=50
8F#	_	8A	_	1DM	D:maj (D F# A)	.	.	->
4F#	free	4A	free	.	.	.	.	.
8r	.	8r	.	.	.	.	.	.
4r	.	2r	.	.	.	.	.	.
8r	.	.	.	.	.	.	.	.
16F#	we	.	.	.	.	.	.	.
16G#	re-	.	.	.	.	.	.	.
=51	=51	=51	=51	=51	=51	=51	=51	=51
4A	-main,	1r	.	1Bm	B:min (B D F#)	.	.	->
4r	.	.	.	.	.	.	.	.
8G#q	_	.	.	.	.	.	.	.
8.A	ten-	.	.	.	.	.	.	.
16[G#	-der	.	.	.	.	.	.	.
8G#]	_	.	.	.	.	.	.	.
8F#	to-	.	.	.	.	.	.	.
=52	=52	=52	=52	=52	=52	=52	=52	=52
8.G#	-ge-	2r	.	1EM	E:maj (E G# B)	newline	117.049	->
16[B	-ther	.	.	.	.	.	.	.
16B]	_	.	.	.	.	.	.	.
16r	.	.	.	.	.	.	.	.
8BB	if	.	.	.	.	.	.	.
8E	not	8G#	not	.	.	.	.	.
8F#	so	8A	so	.	.	.	.	.
8G#	in	8B	in	.	.	.	.	.
16B	love	8[e	love	.	.	.	.	.
16c#	_	.	.	.	.	.	.	.
=53	=53	=53	=53	=53	=53	=53	=53	=53
4B	_	4e]	_	1C#mm	C#:min7 (C# E G# B)	.	.	->
4r	.	4r	.	.	.	.	.	.
8Aq	_	8c#q	_	.	.	.	.	.
8.B	it's	8.e	it's	.	.	.	.	.
16[A	not	16[c#	not	.	.	.	.	.
8A]	_	8c#]	_	.	.	.	.	.
8G#	so	8B	so	.	.	.	.	.
=54	=54	=54	=54	=54	=54	=54	=54	=54
8F#	_	8A	_	1DM	D:maj (D F# A)	.	.	->
4F#	wrong	4A	wrong	.	.	.	.	.
8r	.	8r	.	.	.	.	.	.
8r	.	2r	.	.	.	.	.	.
8E	we're	.	.	.	.	.	.	.
8F#	on-	.	.	.	.	.	.	.
8G#	-ly	.	.	.	.	.	.	.
=55	=55	=55	=55	=55	=55	=55	=55	=55
4A	hu-	1r	.	1Bm	B:min (B D F#)	.	.	->
8G#	-man	.	.	.	.	.	.	.
8F#	_	.	.	.	.	.	.	.
4F#	af-	.	.	.	.	.	.	.
8G#	-ter	.	.	.	.	.	.	.
8E	_	.	.	.	.	.	.	.
=56	=56	=56	=56	=56	=56	=56	=56	=56
2.[E	all	1[e 1[g#	Ha,	1EM	E:maj (E G# B)	newline	126.173	->
8E]	_	.	.	.	.	.	.	.
16F#	_	.	.	.	.	.	.	.
16[G#	_	.	.	.	.	.	.	.
=57	=57	=57	=57	=57	=57	=57	=57	=57
4G#]	_	4e] 4g#]	_	4EM	E:maj (E G# B)	.	.	->
4r	.	4e 4g#	these	4F#mm	F#:min7 (F# A C# E)	.	.	->
2r	.	8e 8g#	chan	2EM	E:maj (G# E B)	.	.	->
.	.	8c# 8f#	_	.	.	.	.	.
.	.	8B 8e	ging	.	.	.	.	.
.	.	8[B 8[g	years	.	.	.	.	.
=58	=58	=58	=58	=58	=58	=58	=58	=58
*	*	*	*	*>C_chorus	*>C_chorus	*>C_chorus	*>C_chorus	*>C_chorus
1r	.	2B] 2g]	_	1CM	C:maj (C E G)	newline	130.78	->
.	.	4r	.	.	.	.	.	.
.	.	8aq	_	.	.	.	.	.
.	.	8d 8b	they	.	.	.	.	.
.	.	8[d 8[a	add	.	.	.	.	.
=59	=59	=59	=59	=59	=59	=59	=59	=59
1r	.	4d] 4a]	_	1DM	D:maj (D F# A)	.	.	->
.	.	8eq	_	.	.	.	.	.
.	.	8A 8f#	to	.	.	.	.	.
.	.	8A 8[e	your	.	.	.	.	.
.	.	4A 4e]	_	.	.	.	.	.
.	.	8Bq	_	.	.	.	.	.
.	.	8A 8c#	con-	.	.	.	.	.
.	.	8[G# 8[B	-fu	.	.	.	.	.
=60	=60	=60	=60	=60	=60	=60	=60	=60
1r	.	4.G#] 4.B]	_	1EM	E:maj (E G# B)	.	.	->
.	.	8Aq 8f#q	_	.	.	.	.	.
.	.	8[B 8[g#	sion!	.	.	.	.	.
.	.	2B] 2g#]	_	.	.	.	.	.
=61	=61	=61	=61	=61	=61	=61	=61	=61
1r	.	8r	.	4EM	E:maj (E G# B)	.	.	->
.	.	8B 8g#	Oh-	.	.	.	.	.
.	.	8B 8g#	-ho,	4F#mm	F#:min7 (F# A C# E)	.	.	->
.	.	8B 8a	you	.	.	.	.	.
.	.	8B 8g#	need	2EM	E:maj (G# E B)	.	.	->
.	.	8B 8f#	_	.	.	.	.	.
.	.	8B 8e	to	.	.	.	.	.
.	.	8[B 8[g	hear	.	.	.	.	.
=62	=62	=62	=62	=62	=62	=62	=62	=62
1r	.	2B] 2g]	_	1CM	C:maj (C E G)	newline	139.967	->
.	.	4r	.	.	.	.	.	.
.	.	8aq	_	.	.	.	.	.
.	.	8d 8b	the	.	.	.	.	.
.	.	8[d 8[a	time	.	.	.	.	.
=63	=63	=63	=63	=63	=63	=63	=63	=63
1r	.	4d] 4a]	_	1DM	D:maj (D F# A)	.	.	->
.	.	8eq	_	.	.	.	.	.
.	.	8A 8f#	that	.	.	.	.	.
.	.	8[A 8[e	told	.	.	.	.	.
.	.	4A] 4e]	_	.	.	.	.	.
.	.	8Bq	_	.	.	.	.	.
.	.	8A 8c#	the	.	.	.	.	.
.	.	8[G# 8[B	truth	.	.	.	.	.
=64	=64	=64	=64	=64	=64	=64	=64	=64
1r	.	1G#] 1B]	_	1EM	E:maj (E G# B)	.	.	->
=65	=65	=65	=65	=65	=65	=65	=65	=65
8r	.	2r	.	4EM	E:maj (E G# B)	.	.	->
8B	Be-	.	.	.	.	.	.	.
8B	-cause	.	.	4F#mm	F#:min7 (F# A C# E)	.	.	->
8e	there's	.	.	.	.	.	.	.
8B	some-	8e 8g#	Some-	2EM	E:maj (G# E B)	.	.	->
8A	-thing	8c# 8f#	-thing	.	.	.	.	.
8G	a-	8B 8e	a-	.	.	.	.	.
8A	-bout	8[B 8[g	-bout	.	.	.	.	.
=66	=66	=66	=66	=66	=66	=66	=66	=66
8G	_	2B] 2g]	_	1CM	C:maj (C E G)	newline	149.063	->
4G	you	.	.	.	.	.	.	.
8r	.	.	.	.	.	.	.	.
4r	.	4r	.	.	.	.	.	.
.	.	8aq	_	.	.	.	.	.
8r	.	8d 8b	the	.	.	.	.	.
8Aq	_	.	.	.	.	.	.	.
8B	ba	8[d 8[a	way	.	.	.	.	.
=67	=67	=67	=67	=67	=67	=67	=67	=67
8A	_	4d] 4a]	_	1DM	D:maj (D F# A)	.	.	->
4A	by	.	.	.	.	.	.	.
.	.	8eq	_	.	.	.	.	.
.	.	8A 8f#	you	.	.	.	.	.
8r	.	8A 8[e	all	.	.	.	.	.
4r	.	4A 4e]	_	.	.	.	.	.
8Gq	_	8Bq	_	.	.	.	.	.
8A	so	8A 8c#	sur-	.	.	.	.	.
8[B	right	8[G# 8[B	-vive	.	.	.	.	.
=68	=68	=68	=68	=68	=68	=68	=68	=68
2.B_	_	4.G#] 4.B]	_	1EM	E:maj (E G# B)	.	.	->
.	.	8Aq 8f#q	_	.	.	.	.	.
.	.	8[B 8[g#	_	.	.	.	.	.
.	.	2B] 2g#]	_	.	.	.	.	.
8B]	_	.	.	.	.	.	.	.
8r	.	.	.	.	.	.	.	.
=69	=69	=69	=69	=69	=69	=69	=69	=69
8r	.	2r	.	4EM	E:maj (E G# B)	.	.	->
8A#q	_	.	.	.	.	.	.	.
8B	I	.	.	.	.	.	.	.
8A#q	_	.	.	.	.	.	.	.
8B	could	.	.	4F#mm	F#:min7 (F# A C# E)	.	.	->
8A#q	_	.	.	.	.	.	.	.
8B	n't	.	.	.	.	.	.	.
8B	live	8B 8g#	I	2EM	E:maj (G# E B)	.	.	->
8A	_	8B 8f#	could-	.	.	.	.	.
8G	with-	8B 8e	-n't	.	.	.	.	.
8A	-out	8[B 8[g	live	.	.	.	.	.
=70	=70	=70	=70	=70	=70	=70	=70	=70
8G	_	2B] 2g]	_	1CM	C:maj (C E G)	newline	158.224	voice
4G	you	.	.	.	.	.	.	.
8r	.	.	.	.	.	.	.	.
8B	ba	4r	.	.	.	.	.	.
8c	_	.	.	.	.	.	.	.
.	.	8aq	_	.	.	.	.	.
8B	_	8d 8b	with-	.	.	.	.	.
8A	by	8[d 8[a	-out	.	.	.	.	.
=71	=71	=71	=71	=71	=71	=71	=71	=71
2r	.	4d] 4a]	_	1DM	D:maj (D F# A)	.	.	voice
.	.	8eq	_	.	.	.	.	.
.	.	8A 8f#	you	.	.	.	.	.
.	.	8[A 8[e	here	.	.	.	.	.
4r	.	4A] 4e]	_	.	.	.	.	.
.	.	8Bq	_	.	.	.	.	.
8c#	so	8A 8c#	to-	.	.	.	.	.
8[B	right	8[G# 8[B	-night!	.	.	.	.	.
=72	=72	=72	=72	=72	=72	=72	=72	=72
2B_	_	2G#_ 2B]	_	1EM	E:maj (E G# B)	.	.	voice
8B]	_	8G#]	_	.	.	.	.	.
8Aq	_	8F#q	_	.	.	.	.	.
8B	_	8G#	_	.	.	.	.	.
8Aq	_	8F#q	_	.	.	.	.	.
8B	_	8G#	_	.	.	.	.	.
8Aq	_	8F#q	_	.	.	.	.	.
16B	_	16G#	_	.	.	.	.	.
16A	_	16F#	_	.	.	.	.	.
=73	=73	=73	=73	=73	=73	=73	=73	=73
2G#	_	2E	_	4EM	E:maj (E G# B)	.	.	voice
.	.	.	.	4F#mm	F#:min7 (F# A C# E)	.	.	voice
2r	.	8G#	(Vocalizing)	2EM	E:maj (G# E B)	.	.	voice
.	.	8F#	_	.	.	.	.	.
.	.	8E	_	.	.	.	.	.
.	.	8[G	_	.	.	.	.	.
=74	=74	=74	=74	=74	=74	=74	=74	=74
*	*	*	*	*>A_solo	*>A_solo	*>A_solo	*>A_solo	*>A_solo
1r	.	4G]	_	1CM	C:maj (C E G)	newline	167.333	guitar
.	.	4r	.	.	.	.	.	.
.	.	2r	.	.	.	.	.	.
=75	=75	=75	=75	=75	=75	=75	=75	=75
1r	.	1r	.	1DM	D:maj (D F# A)	.	.	guitar
=76	=76	=76	=76	=76	=76	=76	=76	=76
1r	.	1r	.	1EM	E:maj (E G# B)	.	.	guitar
=77	=77	=77	=77	=77	=77	=77	=77	=77
1r	.	1r	.	4EM	E:maj (E G# B)	.	.	guitar
.	.	.	.	4F#mm	F#:min7 (F# A C# E)	.	.	guitar
.	.	.	.	2EM	E:maj (G# E B)	.	.	guitar
=78	=78	=78	=78	=78	=78	=78	=78	=78
1r	.	1r	.	1CM	C:maj (C E G)	newline	176.542	guitar
=79	=79	=79	=79	=79	=79	=79	=79	=79
1r	.	1r	.	1DM	D:maj (D F# A)	.	.	guitar
=80	=80	=80	=80	=80	=80	=80	=80	=80
1r	.	1r	.	1EM	E:maj (E G# B)	.	.	guitar
=81	=81	=81	=81	=81	=81	=81	=81	=81
1r	.	2r	.	4EM	E:maj (E G# B)	.	.	guitar
.	.	.	.	4F#mm	F#:min7 (F# A C# E)	.	.	guitar
.	.	8G# 8B	Ooh	2EM	E:maj (G# E B)	.	.	guitar
.	.	8A 8c	_	.	.	.	.	.
.	.	8B 8d	_	.	.	.	.	.
.	.	8[c 8[e	_	.	.	.	.	.
=82	=82	=82	=82	=82	=82	=82	=82	=82
1r	.	4.c] 4.e]	_	1CM	C:maj (C E G)	newline	185.656	guitar
.	.	8[B 8[d	_	.	.	.	.	.
.	.	4.B] 4.d]	_	.	.	.	.	.
.	.	8[A 8[c	_	.	.	.	.	.
=83	=83	=83	=83	=83	=83	=83	=83	=83
1r	.	2A] 2c]	_	1DM	D:maj (D F# A)	.	.	guitar
.	.	4.F# 4.A	_	.	.	.	.	.
.	.	8[G# 8[B	_	.	.	.	.	.
=84	=84	=84	=84	=84	=84	=84	=84	=84
1r	.	1G#] 1B]	_	1EM	E:maj (E G# B)	.	.	guitar
=85	=85	=85	=85	=85	=85	=85	=85	=85
1r	.	4r	.	4EM	E:maj (E G# B)	.	.	guitar
.	.	8r	.	4F#mm	F#:min7 (F# A C# E)	.	.	guitar
.	.	8r	.	.	.	.	.	.
.	.	8G# 8B	Ooh	2EM	E:maj (G# E B)	.	.	guitar
.	.	8A 8c	_	.	.	.	.	.
.	.	8B 8d	_	.	.	.	.	.
.	.	8[c 8[e	_	.	.	.	.	.
=86	=86	=86	=86	=86	=86	=86	=86	=86
1r	.	4.c] 4.e]	_	1CM	C:maj (C E G)	newline	194.821	guitar
.	.	8[B 8[d	_	.	.	.	.	.
.	.	4.B] 4.d]	_	.	.	.	.	.
.	.	8[A 8[c	_	.	.	.	.	.
=87	=87	=87	=87	=87	=87	=87	=87	=87
1r	.	2A] 2c]	_	1DM	D:maj (D F# A)	.	.	guitar
.	.	4.F# 4.A	_	.	.	.	.	.
.	.	8[G# 8[B	_	.	.	.	.	.
=88	=88	=88	=88	=88	=88	=88	=88	=88
1r	.	1G#] 1B]	_	1EM	E:maj (E G# B)	.	.	guitar
=89	=89	=89	=89	=89	=89	=89	=89	=89
8r	.	4r	.	4EM	E:maj (E G# B)	.	.	guitar
8B	And	.	.	.	.	.	.	.
8B	now	8r	.	4F#mm	F#:min7 (F# A C# E)	.	.	guitar
8B	there's	8r	.	.	.	.	.	.
8e	some-	8G# 8B	Ooh	2EM	E:maj (G# E B)	.	.	guitar
8B	-thing	8A 8c	_	.	.	.	.	.
8e	a	8B 8d	_	.	.	.	.	.
8dq	_	.	.	.	.	.	.	.
8[e	bout	8[c 8[e	_	.	.	.	.	.
=90	=90	=90	=90	=90	=90	=90	=90	=90
*	*	*	*	*>A_fadeout	*>A_fadeout	*>A_fadeout	*>A_fadeout	*>A_fadeout
8e]	_	4.c] 4.e]	_	1CM	C:maj (C E G)	newline	203.963	guitar
4d	you	.	.	.	.	.	.	.
8r	.	8[B 8[d	_	.	.	.	.	.
8c	yeah	4.B] 4.d]	_	.	.	.	.	.
4B	_	.	.	.	.	.	.	.
8[A	_	8[A 8[c	_	.	.	.	.	.
=91	=91	=91	=91	=91	=91	=91	=91	=91
4.A]	_	2A] 2c]	_	1DM	D:maj (D F# A)	.	.	guitar
8r	.	.	.	.	.	.	.	.
2r	.	4.F# 4.A	_	.	.	.	.	.
.	.	8[G# 8[B	_	.	.	.	.	.
=92	=92	=92	=92	=92	=92	=92	=92	=92
1r	.	1G#] 1B]	_	1EM	E:maj (E G# B)	.	.	guitar
=93	=93	=93	=93	=93	=93	=93	=93	=93
4r	.	4r	.	4EM	E:maj (E G# B)	.	.	guitar
8B	And	8r	.	4F#mm	F#:min7 (F# A C# E)	.	.	guitar
8B	I	8r	.	.	.	.	.	.
8B	could-	8G# 8B	Ooh	2EM	E:maj (G# E B)	.	.	guitar
4B	-n't	8A 8c	_	.	.	.	.	.
.	.	8B 8d	_	.	.	.	.	.
8[c	live	8[c 8[e	_	.	.	.	.	.
=94	=94	=94	=94	=94	=94	=94	=94	=94
4c]	_	4.c] 4.e]	_	1CM	C:maj (C E G)	newline	213.17	guitar
8d	with-	.	.	.	.	.	.	.
8[B	-out	8[B 8[d	_	.	.	.	.	.
8B]	_	4.B] 4.d]	_	.	.	.	.	.
4.A	you	.	.	.	.	.	.	.
.	.	8[A 8[c	_	.	.	.	.	.
=95	=95	=95	=95	=95	=95	=95	=95	=95
2r	.	2A] 2c]	_	1DM	D:maj (D F# A)	.	.	guitar
4r	.	4.F# 4.A	_	.	.	.	.	.
8d	to-	.	.	.	.	.	.	.
8[B	-night	8[G# 8[B	_	.	.	.	.	.
=96	=96	=96	=96	=96	=96	=96	=96	=96
4.B]	_	1G#] 1B]	_	1EM	E:maj (E G# B)	.	.	guitar
8r	.	.	.	.	.	.	.	.
2r	.	.	.	.	.	.	.	.
=97	=97	=97	=97	=97	=97	=97	=97	=97
1r	.	1r	.	4EM	E:maj (E G# B)	.	.	guitar
.	.	.	.	4F#mm	F#:min7 (F# A C# E)	.	.	guitar
.	.	.	.	2EM	E:maj (G# E B)	.	.	guitar
=98	=98	=98	=98	=98	=98	=98	=98	=98
1r	.	1r	.	1CM	C:maj (C E G)	.	.	guitar
r;	.	r;	.	1r;	r	.	223.91	r
r;	.	r;	.	1r;	r	.	227.265	r
*-	*-	*-	*-	*-	*-	*-	*-	*-
!!!BillboardChartDate: 1986/03/22, 1986/07/05
!!!BillboardPeak: 7, 7
!!!BillboardWeeksOnChart: 27, 27
!!!COC: Level 42
!!!ENC: Nathaniel Condit-Schultz
!!!EST: Awating manual error checking and editing.
!!!OTL: Something About You
!!!RDF**chordsym: original McGill chord annotation + (implied pitch class set, with bass pitch in first position)
!!!RDF**harmony: **recip + pitch class of root + harmonic quality
!!!RDF**leadinstrument: original McGill primary instrumentation annotation
!!!RDF**phrase: newline = linebreak in original McGill transcription
!!!RDF**timestamp: McGill audio timestamp in seconds
!!!RDT: 2017/01/12/
!!!SampleActualRank: 52, 34
!!!SampleID#: 158, 1237
!!!SampleTargetRank: 52, 34
